Dominus_Dark_Funeral/22/apps/synaptic.svg

<svg xmlns="http://www.w3.org/2000/svg" width="24" height="24" viewBox="0 0 6.35 6.35"><defs><linearGradient id="c"><stop offset="0"/><stop offset="1" stop-opacity="0"/></linearGradient><linearGradient id="b"><stop offset="0" stop-color="#1c2224"/><stop offset="1" stop-color="#ccc"/></linearGradient><linearGradient id="a"><stop offset="0" stop-color="#dbe2e3"/><stop offset="1" stop-color="#93a7ac"/></linearGradient></defs><path d="M3.17.26c-.52 0-1.03.14-1.45.38l1.45 1.07L4.63.66A2.8 2.8 0 0 0 3.17.27zm-1.95.76a2.91 2.91 0 0 0-.9 2.75l1.45-1.05zm3.91 0l-.55 1.71 1.45 1.04a2.92 2.92 0 0 0-.9-2.76zm-3.38.2l.4 1.24.65-.48zm2.85 0l-1.05.76.64.48zM3.17 2.24l-.88.65.34 1.03h1.09l.34-1.03zm-1.26.92l-1.05.77h1.31zm2.53 0l-.26.77h1.31zM.5 4.37A2.94 2.94 0 0 0 2.85 6.1L2.3 4.38zm2.27 0l.4 1.25.4-1.24zm1.26 0L3.5 6.1a2.94 2.94 0 0 0 2.35-1.71z" fill="#e6e6e6" stroke-width="1.29"/></svg>

<?xml version="1.0" encoding="UTF-8" standalone="no"?>
<svg
   xmlns:dc="http://purl.org/dc/elements/1.1/"
   xmlns:cc="http://creativecommons.org/ns#"
   xmlns:rdf="http://www.w3.org/1999/02/22-rdf-syntax-ns#"
   xmlns:svg="http://www.w3.org/2000/svg"
   xmlns="http://www.w3.org/2000/svg"
   xmlns:sodipodi="http://sodipodi.sourceforge.net/DTD/sodipodi-0.dtd"
   xmlns:inkscape="http://www.inkscape.org/namespaces/inkscape"
   width="24"
   height="24"
   viewBox="0 0 6.35 6.35"
   version="1.1"
   id="svg21"
   sodipodi:docname="synaptic.svg"
   inkscape:version="0.92.4 (5da689c313, 2019-01-14)">
  <metadata
     id="metadata25">
    <rdf:RDF>
      <cc:Work
         rdf:about="">
        <dc:format>image/svg+xml</dc:format>
        <dc:type
           rdf:resource="http://purl.org/dc/dcmitype/StillImage" />
        <dc:title></dc:title>
      </cc:Work>
    </rdf:RDF>
  </metadata>
  <sodipodi:namedview
     pagecolor="#ffffff"
     bordercolor="#666666"
     borderopacity="1"
     objecttolerance="10"
     gridtolerance="10"
     guidetolerance="10"
     inkscape:pageopacity="0"
     inkscape:pageshadow="2"
     inkscape:window-width="1138"
     inkscape:window-height="480"
     id="namedview23"
     showgrid="false"
     inkscape:zoom="9.8333333"
     inkscape:cx="1.0677966"
     inkscape:cy="12"
     inkscape:window-x="0"
     inkscape:window-y="25"
     inkscape:window-maximized="0"
     inkscape:current-layer="svg21" />
  <defs
     id="defs17">
    <linearGradient
       id="c">
      <stop
         offset="0"
         id="stop2" />
      <stop
         offset="1"
         stop-opacity="0"
         id="stop4" />
    </linearGradient>
    <linearGradient
       id="b">
      <stop
         offset="0"
         stop-color="#1c2224"
         id="stop7" />
      <stop
         offset="1"
         stop-color="#ccc"
         id="stop9" />
    </linearGradient>
    <linearGradient
       id="a">
      <stop
         offset="0"
         stop-color="#dbe2e3"
         id="stop12" />
      <stop
         offset="1"
         stop-color="#93a7ac"
         id="stop14" />
    </linearGradient>
  </defs>
  <path
     d="M 3.17,0.26 C 2.65,0.26 2.14,0.4 1.72,0.64 L 3.17,1.71 4.63,0.66 A 2.8,2.8 0 0 0 3.17,0.27 Z M 1.22,1.02 A 2.91,2.91 0 0 0 0.32,3.77 L 1.77,2.72 Z m 3.91,0 -0.55,1.71 1.45,1.04 A 2.92,2.92 0 0 0 5.13,1.01 Z M 1.75,1.22 2.15,2.46 2.8,1.98 Z m 2.85,0 -1.05,0.76 0.64,0.48 z M 3.17,2.24 2.29,2.89 2.63,3.92 H 3.72 L 4.06,2.89 Z M 1.91,3.16 0.86,3.93 h 1.31 z m 2.53,0 -0.26,0.77 H 5.49 Z M 0.5,4.37 A 2.94,2.94 0 0 0 2.85,6.1 L 2.3,4.38 Z m 2.27,0 0.4,1.25 0.4,-1.24 z m 1.26,0 L 3.5,6.1 A 2.94,2.94 0 0 0 5.85,4.39 Z"
     id="path19"
     inkscape:connector-curvature="0"
     style="fill:#e6e6e6;stroke-width:1.28999996" />
</svg>
